X:1
T:Title
%%score { ( 1 3 ) | ( 2 4 ) }
L:1/8
Q:1/4=78
M:6/8
K:Bb
V:1 treble nm="Grand Piano"
V:3 treble 
V:2 bass 
V:4 bass 
V:1
 [DF]>[EG][DF] [DF]2 [DB] | [EB]2 [EA] [EA]3 | F>GF F2 c | [Ec]2 [DB] [DB]3 | z3 .d3 | %5
w: Theodore~E.~Perkins * * * *|||||
 [GB]2 [GB] G3 | F>FF Bc[=Ed] | d2 c [DB]3 | [Fd]2 [DB] [Fd]2 [FB] | [GB]2 [EG] [GB]>[FA][EG] | %10
w: |||||
 z3 .B3 | d2 c c3 | [Fd]2 [DB] [Fd]2 [_AB] | [GB]2 [EG] [GB]>AG | F>FF Bc[=Ed] | d2 c [DB]3 |] %16
w: ||||||
V:2
 [B,,B,]>[B,,B,][B,,B,] [B,,B,]2 [B,,F,] | [C,F,]2 [C,F,] [C,F,]3 | %2
 [F,A,E]>[F,B,E][F,A,E] [F,A,E]2 [F,A,E] | [B,,B,]2 [B,,B,] [B,,F,]3 | %4
 [B,,B,]>[B,,B,][B,,F,] [B,,B,][C,A,][D,B,] | [E,E]2 [E,E] [E,B,E]3 | %6
 [F,B,D]>[F,B,D][F,B,D] [G,B,=E]2 [C,B,] | [F,A,F]2 [F,E] [B,,F,]3 | %8
 [B,,B,]2 [B,,F,] [B,,B,]2 [D,B,] | [E,E]2 [E,B,] [E,E]2 [E,B,] | %10
 [B,,B,]>[B,,B,][B,,B,] [D,B,][C,A,][B,,B,] | [F,B,F]2 [F,A,F] [F,A,F]3 | %12
 [B,,B,]2 [B,,F,] [B,,B,]2 [D,B,] | [E,E]2 [E,B,] z z/ F/[E,B,E] | %14
 [F,B,D]>[F,B,D][F,B,D] [G,B,=E]2 [C,B,] | [F,A,F]2 [F,E] [B,,F,]3 |] %16
V:3
 x6 | x6 | x6 | x6 | [Fd]>[Ec][DB] F-[Fc][FB] | x6 | x6 | x6 | x6 | x6 | [DF]>[DF][DF] F-[Fc][Fd] | %11
 x6 | x6 | x6 | x6 | x6 |] %16
V:4
 x6 | x6 | x6 | x6 | x6 | x6 | x6 | x6 | x6 | x6 | x6 | x6 | x6 | z3 .[E,E]3 | x6 | x6 |] %16

